; generated by Slic3r 1.2.0 on 2014-08-11 at 22:37:40

; external perimeters extrusion width = 0.50mm
; perimeters extrusion width = 0.72mm
; infill extrusion width = 0.72mm
; solid infill extrusion width = 0.72mm
; top infill extrusion width = 0.72mm

M127
M104 S200 T0 ; set temperature
G28 ; home all axes
G1 Z5 F5000 ; lift nozzle

M73 P0
G1 F1800.000 E-1.00000
M103 ; extruder off
G1 Z0.350 F7800.000
G1 X82.257 Y82.932 F7800.000
M101 ; extruder on
G1 E0.00000 F1800.000
G1 X83.193 Y82.003 E0.04080 F1080.000
G1 X83.627 Y81.608 E0.05897
G1 X84.466 Y80.896 E0.09300
G1 X85.696 Y79.958 E0.14086
G1 X86.923 Y79.136 E0.18657
G1 X87.749 Y78.639 E0.21638
G1 X88.321 Y78.324 E0.23659
G1 X89.240 Y77.855 E0.26852
G1 X89.705 Y77.633 E0.28446
G1 X91.130 Y77.031 E0.33233
G1 X92.589 Y76.519 E0.38018
G1 X94.078 Y76.100 E0.42804
G1 X95.591 Y75.775 E0.47590
G1 X96.610 Y75.614 E0.50783
G1 X97.564 Y75.497 E0.53757
G1 X98.662 Y75.414 E0.57164
G1 X100.208 Y75.378 E0.61949
G1 X101.685 Y75.434 E0.66521
M101 ; extruder on
G1 X102.642 Y75.518 E0.69496 F1080.000
G1 X103.292 Y75.599 E0.71523
G1 X104.818 Y75.853 E0.76309
G1 X105.825 Y76.079 E0.79502
G1 X106.325 Y76.204 E0.81095
G1 X107.806 Y76.648 E0.85880
G1 X109.257 Y77.184 E0.90667
G1 X110.672 Y77.810 E0.95454
G1 X111.923 Y78.454 E0.99808
G1 X112.432 Y78.745 E1.01622
G1 X113.369 Y79.323 E1.05027
G1 X114.641 Y80.203 E1.09813
G1 X115.802 Y81.115 E1.14382
G1 X116.530 Y81.748 E1.17366
G1 X117.006 Y82.194 E1.19386
G1 X118.091 Y83.297 E1.24172
G1 X119.104 Y84.466 E1.28957
G1 X120.042 Y85.696 E1.33744
G1 X120.900 Y86.983 E1.38530
G1 X121.676 Y88.321 E1.43316
G1 X122.311 Y89.579 E1.47675
G1 X122.551 Y90.111 E1.49483
G1 X122.969 Y91.130 E1.52890
G1 X123.481 Y92.589 E1.57675
G1 X123.884 Y94.010 E1.62246
G1 X124.101 Y94.948 E1.65225
G1 X124.225 Y95.591 E1.67248
G1 X124.454 Y97.121 E1.72035
G1 X124.551 Y98.148 E1.75228
G1 X124.586 Y98.662 E1.76821
G1 X124.622 Y100.208 E1.81607
G1 X124.551 Y101.852 E1.86699
G1 X124.401 Y103.292 E1.91179
G1 X124.175 Y104.682 E1.95535
G1 X124.056 Y105.256 E1.97348
G1 X123.796 Y106.325 E2.00752
G1 X123.352 Y107.806 E2.05538
G1 X122.843 Y109.194 E2.10111
G1 X122.468 Y110.079 E2.13085
G1 X122.190 Y110.672 E2.15112
G1 X121.476 Y112.044 E2.19897
G1 X120.622 Y113.451 E2.24990
G1 X119.797 Y114.641 E2.29469
G1 X118.839 Y115.855 E2.34255
G1 X117.806 Y117.006 E2.39041
G1 X116.807 Y117.997 E2.43394
G1 X116.373 Y118.392 E2.45211
G1 X115.534 Y119.104 E2.48614
G1 X114.304 Y120.042 E2.53400
G1 X113.077 Y120.864 E2.57971
G1 X112.251 Y121.361 E2.60952
G1 X111.591 Y121.721 E2.63279
G1 X110.295 Y122.367 E2.67760
G1 X108.870 Y122.969 E2.72547
G1 X107.316 Y123.508 E2.77637
G1 X105.922 Y123.900 E2.82117
G1 X104.409 Y124.225 E2.86904
G1 X103.017 Y124.439 E2.91263
G1 X102.436 Y124.503 E2.93071
G1 X101.239 Y124.589 E2.96783
G1 X99.792 Y124.622 E3.01262
G1 X98.315 Y124.566 E3.05835
G1 X97.358 Y124.482 E3.08809
G1 X96.708 Y124.401 E3.10836
G1 X95.182 Y124.147 E3.15622
G1 X93.675 Y123.796 E3.20408
G1 X92.194 Y123.352 E3.25194
G1 X90.743 Y122.816 E3.29980
G1 X89.328 Y122.190 E3.34767
G1 X88.077 Y121.546 E3.39121
G1 X87.568 Y121.255 E3.40935
G1 X86.631 Y120.677 E3.44340
G1 X85.359 Y119.797 E3.49126
G1 X84.198 Y118.885 E3.53695
G1 X83.470 Y118.252 E3.56679
G1 X82.994 Y117.806 E3.58699
G1 X81.909 Y116.703 E3.63485
G1 X80.896 Y115.534 E3.68271
G1 X79.869 Y114.172 E3.73549
G1 X79.049 Y112.932 E3.78148
G1 X78.324 Y111.679 E3.82628
G1 X77.689 Y110.421 E3.86987
G1 X77.449 Y109.889 E3.88795
G1 X77.031 Y108.870 E3.92202
G1 X76.519 Y107.411 E3.96987
G1 X76.116 Y105.990 E4.01558
G1 X75.899 Y105.052 E4.04537
G1 X75.775 Y104.409 E4.06561
G1 X75.537 Y102.781 E4.11653
G1 X75.414 Y101.338 E4.16133
G1 X75.378 Y99.792 E4.20918
G1 X75.440 Y98.246 E4.25704
G1 X75.599 Y96.708 E4.30491
G1 X75.825 Y95.318 E4.34847
G1 X75.944 Y94.744 E4.36659
G1 X76.204 Y93.675 E4.40064
G1 X76.648 Y92.194 E4.44849
G1 X77.157 Y90.806 E4.49423
G1 X77.532 Y89.921 E4.52397
G1 X77.810 Y89.328 E4.54424
G1 X78.524 Y87.956 E4.59209
G1 X79.323 Y86.631 E4.63996
G1 X80.203 Y85.359 E4.68782
G1 X81.161 Y84.145 E4.73568
G1 X82.203 Y82.984 E4.78394
G1 F1800.000 E3.78394
M103 ; extruder off
G1 X88.045 Y88.774 F7800.000
M101 ; extruder on
G1 E4.78394 F1800.000
G1 X88.774 Y88.045 E4.81583 F540.000
G1 X89.547 Y87.364 E4.84770
G1 X90.361 Y86.733 E4.87958
G1 X91.213 Y86.154 E4.91145
G1 X92.099 Y85.629 E4.94333
G1 X93.017 Y85.161 E4.97521
G1 X93.963 Y84.752 E5.00708
G1 X94.932 Y84.403 E5.03896
G1 X95.875 Y84.129 E5.06933
G1 X96.927 Y83.891 E5.10271
G1 X97.944 Y83.730 E5.13458
G1 X98.970 Y83.633 E5.16646
G1 X100.000 Y83.601 E5.19834
G1 X100.981 Y83.631 E5.22871
M101 ; extruder on
G1 X102.056 Y83.730 E5.26211 F540.000
G1 X103.073 Y83.891 E5.29397
G1 X104.078 Y84.116 E5.32584
G1 X105.068 Y84.403 E5.35772
G1 X106.037 Y84.752 E5.38960
G1 X106.983 Y85.161 E5.42147
G1 X107.901 Y85.629 E5.45335
G1 X108.188 Y85.799 E5.46367
G1 X108.787 Y86.154 E5.48523
G1 X109.639 Y86.733 E5.51710
G1 X110.453 Y87.364 E5.54898
G1 X111.226 Y88.045 E5.58085
G1 X111.955 Y88.774 E5.61274
G1 X112.604 Y89.510 E5.64311
G1 X113.267 Y90.361 E5.67649
G1 X113.846 Y91.213 E5.70836
G1 X114.371 Y92.100 E5.74024
G1 X114.839 Y93.018 E5.77212
G1 X115.248 Y93.963 E5.80400
G1 X115.597 Y94.932 E5.83587
G1 X115.884 Y95.922 E5.86775
G1 X116.109 Y96.927 E5.89963
G1 X116.270 Y97.945 E5.93150
G1 X116.367 Y98.970 E5.96338
G1 X116.399 Y100.000 E5.99526
G1 X116.367 Y101.030 E6.02713
G1 X116.270 Y102.055 E6.05901
G1 X116.109 Y103.073 E6.09088
G1 X115.884 Y104.078 E6.12277
G1 X115.597 Y105.068 E6.15464
G1 X115.248 Y106.037 E6.18652
G1 X114.839 Y106.982 E6.21839
G1 X114.371 Y107.900 E6.25027
G1 X113.819 Y108.827 E6.28365
G1 X113.267 Y109.639 E6.31402
G1 X112.636 Y110.453 E6.34590
G1 X111.955 Y111.226 E6.37778
G1 X111.226 Y111.955 E6.40966
G1 X110.976 Y112.176 E6.41999
G1 X110.453 Y112.636 E6.44153
G1 X109.639 Y113.267 E6.47341
G1 X108.787 Y113.846 E6.50528
G1 X107.901 Y114.371 E6.53716
G1 X106.983 Y114.839 E6.56904
G1 X106.037 Y115.248 E6.60091
G1 X105.068 Y115.597 E6.63279
G1 X104.078 Y115.884 E6.66467
G1 X103.073 Y116.109 E6.69655
G1 X102.056 Y116.270 E6.72842
G1 X101.030 Y116.367 E6.76030
G1 X100.000 Y116.399 E6.79218
G1 X98.970 Y116.367 E6.82405
G1 X97.944 Y116.270 E6.85593
G1 X96.927 Y116.109 E6.88781
G1 X95.922 Y115.884 E6.91968
G1 X94.932 Y115.597 E6.95156
G1 X93.963 Y115.248 E6.98344
G1 X93.017 Y114.839 E7.01531
G1 X92.100 Y114.371 E7.04719
G1 X91.213 Y113.846 E7.07907
G1 X90.361 Y113.267 E7.11094
G1 X89.547 Y112.636 E7.14282
G1 X88.774 Y111.955 E7.17469
G1 X88.045 Y111.226 E7.20658
G1 X87.364 Y110.453 E7.23845
G1 X86.733 Y109.639 E7.27033
G1 X86.153 Y108.787 E7.30221
G1 X85.629 Y107.900 E7.33408
G1 X85.161 Y106.982 E7.36596
G1 X84.752 Y106.037 E7.39784
G1 X84.403 Y105.068 E7.42971
G1 X84.116 Y104.078 E7.46159
G1 X83.891 Y103.073 E7.49347
G1 X83.730 Y102.055 E7.52534
G1 X83.633 Y101.030 E7.55722
G1 X83.601 Y100.000 E7.58910
G1 X83.633 Y98.970 E7.62098
G1 X83.730 Y97.945 E7.65285
G1 X83.891 Y96.927 E7.68472
G1 X84.116 Y95.922 E7.71661
G1 X84.403 Y94.932 E7.74848
G1 X84.752 Y93.963 E7.78036
G1 X85.161 Y93.018 E7.81223
G1 X85.629 Y92.100 E7.84411
G1 X86.154 Y91.213 E7.87599
G1 X86.733 Y90.361 E7.90787
G1 X87.364 Y89.547 E7.93974
G1 X87.996 Y88.830 E7.96930
G1 X87.527 Y88.417 F7800.000
M101 ; extruder on
G1 X88.346 Y87.590 E8.00532 F540.000
G1 X88.612 Y87.352 E8.01634
G1 X89.148 Y86.882 E8.03841
G1 X89.993 Y86.227 E8.07150
G1 X90.878 Y85.626 E8.10459
G1 X91.490 Y85.260 E8.12666
G1 X91.798 Y85.081 E8.13768
G1 X92.751 Y84.596 E8.17078
G1 X93.733 Y84.171 E8.20387
G1 X94.739 Y83.809 E8.23696
G1 X95.766 Y83.510 E8.27005
G1 X96.810 Y83.277 E8.30315
G1 X97.866 Y83.110 E8.33624
G1 X98.931 Y83.009 E8.36933
G1 X99.932 Y82.978 E8.40031
M101 ; extruder on
G1 X101.069 Y83.009 E8.43551 F540.000
G1 X102.134 Y83.110 E8.46862
G1 X103.190 Y83.277 E8.50169
G1 X104.234 Y83.510 E8.53479
G1 X105.261 Y83.809 E8.56788
G1 X106.267 Y84.171 E8.60097
G1 X107.249 Y84.596 E8.63406
G1 X108.202 Y85.081 E8.66716
G1 X109.122 Y85.626 E8.70025
G1 X110.007 Y86.227 E8.73334
G1 X110.852 Y86.882 E8.76643
G1 X111.654 Y87.590 E8.79952
G1 X112.410 Y88.346 E8.83262
G1 X113.072 Y89.097 E8.86359
G1 X113.773 Y89.993 E8.89880
G1 X114.374 Y90.878 E8.93189
G1 X114.919 Y91.798 E8.96498
G1 X115.404 Y92.751 E8.99807
G1 X115.829 Y93.733 E9.03117
G1 X116.191 Y94.739 E9.06426
G1 X116.490 Y95.766 E9.09735
G1 X116.648 Y96.461 E9.11941
G1 X116.723 Y96.810 E9.13044
G1 X116.890 Y97.866 E9.16353
G1 X116.991 Y98.931 E9.19662
G1 X117.025 Y100.000 E9.22972
G1 X116.991 Y101.069 E9.26281
G1 X116.890 Y102.134 E9.29590
G1 X116.723 Y103.190 E9.32899
G1 X116.490 Y104.234 E9.36209
G1 X116.191 Y105.261 E9.39518
G1 X115.829 Y106.267 E9.42827
G1 X115.404 Y107.249 E9.46136
G1 X114.919 Y108.202 E9.49446
G1 X114.336 Y109.179 E9.52966
G1 X113.773 Y110.007 E9.56063
G1 X113.118 Y110.852 E9.59373
G1 X112.410 Y111.654 E9.62682
G1 X111.654 Y112.410 E9.65992
G1 X111.388 Y112.648 E9.67094
G1 X110.852 Y113.118 E9.69300
G1 X110.007 Y113.773 E9.72610
G1 X109.122 Y114.374 E9.75919
G1 X108.510 Y114.740 E9.78125
G1 X108.202 Y114.919 E9.79228
G1 X107.249 Y115.404 E9.82537
G1 X106.267 Y115.829 E9.85847
G1 X105.261 Y116.191 E9.89156
G1 X104.234 Y116.490 E9.92465
G1 X103.190 Y116.723 E9.95774
G1 X102.134 Y116.890 E9.99083
G1 X101.779 Y116.927 E10.00187
G1 X101.069 Y116.991 E10.02393
G1 X100.000 Y117.025 E10.05702
G1 X98.931 Y116.991 E10.09011
G1 X97.866 Y116.890 E10.12320
G1 X96.810 Y116.723 E10.15629
G1 X95.766 Y116.490 E10.18939
G1 X94.739 Y116.191 E10.22248
G1 X93.733 Y115.829 E10.25557
G1 X92.751 Y115.404 E10.28866
G1 X91.798 Y114.919 E10.32176
G1 X90.878 Y114.374 E10.35485
G1 X89.993 Y113.773 E10.38794
G1 X89.148 Y113.118 E10.42103
G1 X88.346 Y112.410 E10.45412
G1 X87.590 Y111.654 E10.48722
G1 X86.882 Y110.852 E10.52031
G1 X86.227 Y110.007 E10.55340
G1 X85.626 Y109.122 E10.58649
G1 X85.081 Y108.202 E10.61958
G1 X84.596 Y107.249 E10.65268
G1 X84.171 Y106.267 E10.68577
G1 X83.809 Y105.261 E10.71886
G1 X83.510 Y104.234 E10.75195
G1 X83.277 Y103.190 E10.78505
G1 X83.110 Y102.134 E10.81814
G1 X83.009 Y101.069 E10.85123
G1 X82.975 Y100.000 E10.88432
G1 X83.009 Y98.931 E10.91741
G1 X83.110 Y97.866 E10.95051
G1 X83.277 Y96.810 E10.98359
G1 X83.352 Y96.461 E10.99463
G1 X83.510 Y95.766 E11.01669
G1 X83.809 Y94.739 E11.04978
G1 X84.171 Y93.733 E11.08287
G1 X84.596 Y92.751 E11.11597
G1 X85.081 Y91.798 E11.14906
G1 X85.626 Y90.878 E11.18215
G1 X86.227 Y89.993 E11.21524
G1 X86.882 Y89.148 E11.24834
G1 X87.477 Y88.473 E11.27618
G1 X87.009 Y88.060 F7800.000
M101 ; extruder on
G1 X87.918 Y87.134 E11.31633 F378.000
G1 X88.191 Y86.885 E11.32777
G1 X88.750 Y86.401 E11.35064
G1 X89.626 Y85.721 E11.38495
G1 X90.543 Y85.098 E11.41926
G1 X91.497 Y84.533 E11.45356
G1 X92.485 Y84.030 E11.48787
G1 X93.503 Y83.590 E11.52218
G1 X94.546 Y83.214 E11.55649
G1 X95.611 Y82.905 E11.59079
G1 X96.693 Y82.663 E11.62510
G1 X97.788 Y82.489 E11.65941
G1 X98.892 Y82.385 E11.69372
G1 X100.000 Y82.350 E11.72802
G1 X101.020 Y82.382 E11.75961
M101 ; extruder on
G1 X102.213 Y82.489 E11.79665 F378.000
G1 X103.307 Y82.663 E11.83094
G1 X104.389 Y82.905 E11.86525
G1 X105.454 Y83.214 E11.89956
G1 X106.497 Y83.590 E11.93386
G1 X107.515 Y84.030 E11.96817
G1 X108.503 Y84.533 E12.00248
G1 X109.457 Y85.098 E12.03679
G1 X110.374 Y85.721 E12.07109
G1 X111.250 Y86.401 E12.10540
G1 X111.809 Y86.885 E12.12827
G1 X112.082 Y87.134 E12.13971
G1 X112.866 Y87.918 E12.17402
G1 X113.599 Y88.750 E12.20832
G1 X114.279 Y89.626 E12.24263
G1 X114.902 Y90.543 E12.27694
G1 X115.467 Y91.497 E12.31125
G1 X115.970 Y92.485 E12.34555
G1 X116.410 Y93.503 E12.37986
G1 X116.786 Y94.546 E12.41417
G1 X117.095 Y95.611 E12.44848
G1 X117.337 Y96.693 E12.48278
G1 X117.511 Y97.788 E12.51709
G1 X117.615 Y98.892 E12.55140
G1 X117.650 Y100.000 E12.58571
G1 X117.615 Y101.108 E12.62001
G1 X117.511 Y102.212 E12.65432
G1 X117.337 Y103.307 E12.68863
G1 X117.262 Y103.669 E12.70007
G1 X117.095 Y104.389 E12.72294
G1 X116.786 Y105.454 E12.75725
G1 X116.410 Y106.497 E12.79155
G1 X116.122 Y107.178 E12.81443
G1 X115.970 Y107.515 E12.82586
G1 X115.467 Y108.503 E12.86017
G1 X114.853 Y109.530 E12.89719
G1 X114.279 Y110.374 E12.92878
G1 X113.599 Y111.250 E12.96309
G1 X112.866 Y112.082 E12.99739
G1 X112.082 Y112.866 E13.03170
G1 X111.809 Y113.115 E13.04314
G1 X111.250 Y113.599 E13.06601
G1 X110.374 Y114.279 E13.10032
G1 X109.457 Y114.902 E13.13462
G1 X108.503 Y115.467 E13.16893
G1 X107.515 Y115.970 E13.20324
G1 X106.497 Y116.410 E13.23755
G1 X105.454 Y116.786 E13.27185
G1 X104.389 Y117.095 E13.30616
G1 X103.307 Y117.337 E13.34047
G1 X102.212 Y117.511 E13.37478
G1 X101.108 Y117.615 E13.40908
G1 X100.000 Y117.650 E13.44339
G1 X98.892 Y117.615 E13.47770
G1 X98.155 Y117.551 E13.50057
G1 X97.788 Y117.511 E13.51201
G1 X96.693 Y117.337 E13.54632
G1 X95.611 Y117.095 E13.58062
G1 X94.546 Y116.786 E13.61493
G1 X93.503 Y116.410 E13.64924
G1 X92.485 Y115.970 E13.68355
G1 X91.497 Y115.467 E13.71785
G1 X90.543 Y114.902 E13.75216
G1 X89.626 Y114.279 E13.78647
G1 X88.750 Y113.599 E13.82078
G1 X87.918 Y112.866 E13.85508
G1 X87.134 Y112.082 E13.88939
G1 X86.401 Y111.250 E13.92370
G1 X85.721 Y110.374 E13.95801
G1 X85.098 Y109.457 E13.99231
G1 X84.533 Y108.503 E14.02662
G1 X84.030 Y107.515 E14.06093
G1 X83.590 Y106.497 E14.09523
G1 X83.214 Y105.454 E14.12954
G1 X82.905 Y104.389 E14.16385
G1 X82.663 Y103.307 E14.19816
G1 X82.489 Y102.212 E14.23246
G1 X82.385 Y101.108 E14.26677
G1 X82.350 Y100.000 E14.30108
G1 X82.385 Y98.892 E14.33539
G1 X82.489 Y97.788 E14.36969
G1 X82.663 Y96.693 E14.40400
G1 X82.905 Y95.611 E14.43831
G1 X83.214 Y94.546 E14.47262
G1 X83.590 Y93.503 E14.50692
G1 X83.878 Y92.822 E14.52980
G1 X84.030 Y92.485 E14.54123
G1 X84.533 Y91.497 E14.57554
G1 X85.098 Y90.543 E14.60985
G1 X85.721 Y89.626 E14.64415
G1 X86.401 Y88.750 E14.67846
G1 X86.959 Y88.116 E14.70459
G1 X101.303 Y82.795 F7800.000
G1 X105.965 Y85.193 F7800.000
M101 ; extruder on
G1 X114.807 Y94.035 E15.09150 F1080.000
G1 X115.279 Y95.391 F7800.000
M101 ; extruder on
G1 X104.609 Y84.721 E15.55838 F1080.000
G1 X103.416 Y84.411 E15.59653
G1 X115.589 Y96.584 E16.12918
G1 X115.788 Y97.667 E16.16326
G1 X102.333 Y84.212 E16.75202
G1 X101.335 Y84.099 E16.78309
G1 X115.903 Y98.667 E17.42056
G1 X115.954 Y99.601 E17.44950
G1 X100.399 Y84.046 E18.13014
G1 X99.518 Y84.049 E18.15741
G1 X115.951 Y100.482 E18.87649
G1 X115.905 Y101.320 E18.90245
G1 X98.680 Y84.095 E19.65616
G1 X97.879 Y84.179 E19.68106
G1 X115.821 Y102.121 E20.46616
G1 X115.701 Y102.884 E20.49007
G1 X97.116 Y84.299 E21.30327
G1 X96.390 Y84.457 E21.32627
G1 X115.545 Y103.612 E22.16445
G1 X115.364 Y104.315 E22.18692
G1 X95.685 Y84.636 E23.04806
G1 X95.003 Y84.838 E23.07006
G1 X115.162 Y104.997 E23.95217
G1 X114.928 Y105.647 E23.97354
G1 X94.353 Y85.072 E24.87385
G1 X93.724 Y85.327 E24.89485
G1 X114.673 Y106.276 E25.81149
G1 X114.401 Y106.888 E25.83222
G1 X93.112 Y85.599 E26.76376
G1 X92.527 Y85.897 E26.78409
G1 X114.103 Y107.473 E27.72820
G1 X113.785 Y108.040 E27.74830
G1 X91.960 Y86.215 E28.70332
G1 X91.407 Y86.545 E28.72326
G1 X113.455 Y108.593 E29.68803
G1 X113.097 Y109.119 E29.70772
G1 X90.881 Y86.903 E30.67987
G1 X90.368 Y87.275 E30.69945
G1 X112.725 Y109.632 E31.67773
G1 X112.339 Y110.129 E31.69723
G1 X89.871 Y87.661 E32.68040
G1 X89.398 Y88.072 E32.69979
G1 X111.928 Y110.602 E33.68563
G1 X111.491 Y111.049 E33.70497
G1 X88.951 Y88.509 E34.69127
G1 X88.509 Y88.951 E34.71061
G1 X111.049 Y111.491 E35.69691
G1 X110.602 Y111.928 E35.71625
G1 X88.072 Y89.398 E36.70209
G1 X87.661 Y89.871 E36.72148
G1 X110.129 Y112.339 E37.70465
G1 X109.632 Y112.725 E37.72414
G1 X87.275 Y90.368 E38.70243
G1 X86.903 Y90.881 E38.72201
G1 X109.119 Y113.097 E39.69416
G1 X108.593 Y113.455 E39.71385
G1 X86.545 Y91.407 E40.67862
G1 X86.215 Y91.960 E40.69856
G1 X108.040 Y113.785 E41.65358
G1 X107.473 Y114.103 E41.67368
G1 X85.897 Y92.527 E42.61778
G1 X85.599 Y93.112 E42.63812
G1 X106.888 Y114.401 E43.56966
G1 X106.276 Y114.673 E43.59038
G1 X85.327 Y93.724 E44.50703
G1 X85.072 Y94.353 E44.52803
G1 X105.647 Y114.928 E45.42833
G1 X104.997 Y115.162 E45.44971
G1 X84.838 Y95.003 E46.33182
G1 X84.636 Y95.685 E46.35381
