; generated by Slic3r 1.2.0 on 2014-08-11 at 22:37:47

; external perimeters extrusion width = 0.50mm
; perimeters extrusion width = 0.72mm
; infill extrusion width = 0.72mm
; solid infill extrusion width = 0.72mm
; top infill extrusion width = 0.72mm

M127
M104 S200 T0 ; set temperature
G28 ; home all axes
G1 Z5 F5000 ; lift nozzle

M73 P0
G1 F1800.000 E-1.00000
M103 ; extruder off
G1 Z0.350 F7800.000
G1 X81.011 Y81.341 F7800.000
M101 ; extruder on
G1 E0.00000 F1800.000
G1 X82.359 Y80.062 E0.05749 F1080.000
G1 X83.424 Y79.169 E0.10051
G1 X83.792 Y78.880 E0.11498
G1 X85.306 Y77.801 E0.17249
G1 X86.890 Y76.830 E0.22998
G1 X88.118 Y76.177 E0.27303
G1 X88.540 Y75.971 E0.28753
G1 X90.242 Y75.231 E0.34498
G1 X91.994 Y74.611 E0.40247
G1 X93.331 Y74.227 E0.44552
G1 X93.784 Y74.114 E0.45996
G1 X95.605 Y73.743 E0.51748
G1 X97.447 Y73.501 E0.57496
G1 X98.831 Y73.404 E0.61787
G1 X99.302 Y73.387 E0.63246
G1 X101.160 Y73.403 E0.68996
M101 ; extruder on
G1 X103.012 Y73.549 E0.74744 F1080.000
G1 X104.851 Y73.824 E0.80495
G1 X106.665 Y74.226 E0.86244
G1 X108.446 Y74.753 E0.91993
G1 X110.187 Y75.404 E0.97743
G1 X111.878 Y76.175 E1.03492
G1 X113.099 Y76.824 E1.07773
G1 X113.510 Y77.061 E1.09241
G1 X115.078 Y78.060 E1.14993
G1 X116.572 Y79.165 E1.20741
G1 X117.985 Y80.371 E1.26490
G1 X119.310 Y81.674 E1.32240
G1 X120.542 Y83.066 E1.37990
G1 X121.672 Y84.539 E1.43738
G1 X122.698 Y86.089 E1.49488
G1 X123.388 Y87.284 E1.53758
G1 X123.614 Y87.707 E1.55239
G1 X124.413 Y89.383 E1.60987
G1 X125.095 Y91.113 E1.66739
G1 X125.653 Y92.884 E1.72486
G1 X126.087 Y94.691 E1.78236
G1 X126.394 Y96.524 E1.83986
G1 X126.572 Y98.374 E1.89735
G1 X126.621 Y100.231 E1.95484
G1 X126.540 Y102.088 E2.01234
G1 X126.330 Y103.934 E2.06983
G1 X125.991 Y105.761 E2.12734
G1 X125.526 Y107.560 E2.18481
G1 X124.936 Y109.322 E2.24233
G1 X124.225 Y111.039 E2.29981
G1 X123.397 Y112.701 E2.35729
G1 X122.453 Y114.303 E2.41481
G1 X121.391 Y115.846 E2.47277
G1 X120.245 Y117.288 E2.52977
G1 X118.989 Y118.658 E2.58726
G1 X117.641 Y119.938 E2.64478
G1 X116.208 Y121.120 E2.70226
G1 X114.694 Y122.199 E2.75978
G1 X113.110 Y123.170 E2.81726
G1 X111.463 Y124.028 E2.87474
G1 X109.758 Y124.769 E2.93225
G1 X108.006 Y125.389 E2.98974
G1 X106.216 Y125.886 E3.04723
G1 X104.395 Y126.257 E3.10472
G1 X102.553 Y126.499 E3.16223
G1 X100.698 Y126.613 E3.21972
G1 X98.840 Y126.597 E3.27721
G1 X96.988 Y126.451 E3.33470
G1 X95.141 Y126.175 E3.39247
G1 X93.337 Y125.775 E3.44966
G1 X91.556 Y125.247 E3.50713
G1 X89.819 Y124.599 E3.56449
G1 X88.122 Y123.825 E3.62219
G1 X86.491 Y122.940 E3.67963
G1 X84.923 Y121.941 E3.73714
G1 X83.429 Y120.836 E3.79464
G1 X82.017 Y119.630 E3.85210
G1 X80.690 Y118.326 E3.90966
G1 X79.459 Y116.935 E3.96712
G1 X78.324 Y115.455 E4.02484
G1 X77.302 Y113.911 E4.08214
G1 X76.387 Y112.294 E4.13964
G1 X75.587 Y110.617 E4.19711
G1 X74.906 Y108.888 E4.25462
G1 X74.347 Y107.117 E4.31208
G1 X73.913 Y105.309 E4.36962
G1 X73.605 Y103.469 E4.42732
G1 X73.428 Y101.627 E4.48457
G1 X73.379 Y99.769 E4.54210
G1 X73.460 Y97.912 E4.59959
G1 X73.670 Y96.066 E4.65709
G1 X74.009 Y94.239 E4.71459
G1 X74.474 Y92.440 E4.77207
G1 X74.903 Y91.118 E4.81507
G1 X75.064 Y90.678 E4.82958
G1 X75.775 Y88.961 E4.88706
G1 X76.604 Y87.298 E4.94457
G1 X77.547 Y85.697 E5.00207
G1 X78.324 Y84.545 E5.04507
G1 X79.455 Y83.070 E5.10258
G1 X79.756 Y82.711 E5.11706
G1 X80.961 Y81.396 E5.17224
G1 F1800.000 E4.17224
M103 ; extruder off
G1 X86.800 Y87.253 F7800.000
M101 ; extruder on
G1 E5.17224 F1800.000
G1 X87.721 Y86.363 E5.21186 F378.000
G1 X88.702 Y85.540 E5.25150
G1 X89.739 Y84.787 E5.29113
G1 X90.825 Y84.108 E5.33076
G1 X91.956 Y83.507 E5.37039
G1 X93.126 Y82.986 E5.41002
G1 X94.329 Y82.548 E5.44965
G1 X95.531 Y82.203 E5.48833
G1 X96.814 Y81.929 E5.52891
G1 X98.082 Y81.750 E5.56854
G1 X99.360 Y81.661 E5.60817
G1 X100.640 Y81.661 E5.64780
G1 X101.888 Y81.748 E5.68648
M101 ; extruder on
G1 X103.186 Y81.929 E5.72706 F378.000
G1 X104.439 Y82.195 E5.76669
G1 X105.671 Y82.548 E5.80632
G1 X106.874 Y82.986 E5.84595
G1 X108.044 Y83.507 E5.88558
G1 X109.175 Y84.108 E5.92521
G1 X110.261 Y84.787 E5.96484
G1 X111.298 Y85.540 E6.00447
G1 X112.279 Y86.363 E6.04410
G1 X113.200 Y87.253 E6.08373
G1 X114.057 Y88.205 E6.12336
G1 X114.846 Y89.214 E6.16299
G1 X115.562 Y90.276 E6.20262
G1 X116.202 Y91.385 E6.24225
G1 X116.764 Y92.536 E6.28188
G1 X117.244 Y93.724 E6.32151
G1 X117.639 Y94.942 E6.36114
G1 X117.942 Y96.155 E6.39983
G1 X118.172 Y97.446 E6.44040
G1 X118.306 Y98.720 E6.48003
G1 X118.350 Y100.000 E6.51966
G1 X118.306 Y101.280 E6.55929
G1 X118.172 Y102.554 E6.59893
G1 X117.949 Y103.815 E6.63855
G1 X117.639 Y105.058 E6.67819
G1 X117.244 Y106.276 E6.71782
G1 X116.764 Y107.464 E6.75745
G1 X116.187 Y108.641 E6.79802
G1 X115.562 Y109.724 E6.83671
G1 X114.846 Y110.786 E6.87634
G1 X114.057 Y111.795 E6.91597
G1 X113.200 Y112.747 E6.95560
G1 X112.279 Y113.637 E6.99523
G1 X111.298 Y114.460 E7.03486
G1 X110.261 Y115.213 E7.07449
G1 X109.175 Y115.892 E7.11412
G1 X108.044 Y116.493 E7.15375
G1 X106.874 Y117.014 E7.19338
G1 X105.671 Y117.452 E7.23301
G1 X104.439 Y117.805 E7.27264
G1 X103.187 Y118.071 E7.31227
G1 X101.918 Y118.250 E7.35190
G1 X100.640 Y118.339 E7.39153
G1 X99.360 Y118.339 E7.43116
G1 X98.082 Y118.250 E7.47079
G1 X96.814 Y118.071 E7.51042
G1 X95.561 Y117.805 E7.55005
G1 X94.329 Y117.452 E7.58968
G1 X93.126 Y117.014 E7.62931
G1 X91.956 Y116.493 E7.66894
G1 X90.825 Y115.892 E7.70857
G1 X89.714 Y115.195 E7.74915
G1 X88.702 Y114.460 E7.78783
G1 X87.721 Y113.637 E7.82747
G1 X86.800 Y112.747 E7.86709
G1 X85.943 Y111.795 E7.90673
G1 X85.154 Y110.786 E7.94636
G1 X84.438 Y109.724 E7.98599
G1 X83.798 Y108.615 E8.02562
G1 X83.236 Y107.464 E8.06525
G1 X82.756 Y106.276 E8.10488
G1 X82.361 Y105.058 E8.14451
G1 X82.051 Y103.815 E8.18414
G1 X81.828 Y102.554 E8.22377
G1 X81.694 Y101.280 E8.26340
G1 X81.650 Y100.000 E8.30303
G1 X81.694 Y98.720 E8.34266
G1 X81.828 Y97.446 E8.38229
G1 X82.051 Y96.185 E8.42192
G1 X82.361 Y94.942 E8.46155
G1 X82.756 Y93.724 E8.50118
G1 X83.236 Y92.536 E8.54081
G1 X83.798 Y91.385 E8.58044
G1 X84.438 Y90.276 E8.62007
G1 X85.154 Y89.214 E8.65970
G1 X85.943 Y88.205 E8.69934
G1 X86.750 Y87.309 E8.73665
G1 F1800.000 E7.73665
M103 ; extruder off
G1 X102.122 Y81.306 F7800.000
G1 X102.237 Y80.484 F7800.000
M101 ; extruder on
G1 E8.73665 F1800.000
G1 X103.412 Y80.649 E8.77335 F378.000
G1 X104.754 Y80.934 E8.81579
G1 X106.072 Y81.312 E8.85823
G1 X107.361 Y81.781 E8.90066
G1 X108.614 Y82.339 E8.94310
G1 X109.825 Y82.983 E8.98554
G1 X110.988 Y83.710 E9.02798
G1 X112.098 Y84.516 E9.07041
G1 X113.148 Y85.397 E9.11285
G1 X114.135 Y86.350 E9.15529
G1 X115.053 Y87.369 E9.19772
G1 X115.897 Y88.450 E9.24016
G1 X116.664 Y89.587 E9.28260
G1 X117.350 Y90.775 E9.32504
G1 X117.951 Y92.008 E9.36747
G1 X118.465 Y93.279 E9.40991
G1 X118.889 Y94.584 E9.45235
G1 X119.220 Y95.915 E9.49479
G1 X119.459 Y97.265 E9.53722
G1 X119.602 Y98.629 E9.57966
G1 X119.650 Y100.000 E9.62210
G1 X119.602 Y101.371 E9.66453
G1 X119.459 Y102.735 E9.70697
G1 X119.220 Y104.085 E9.74941
G1 X118.889 Y105.416 E9.79184
G1 X118.465 Y106.721 E9.83428
G1 X117.951 Y107.992 E9.87672
G1 X117.350 Y109.225 E9.91916
G1 X116.664 Y110.413 E9.96159
G1 X115.897 Y111.550 E10.00403
G1 X115.053 Y112.631 E10.04647
G1 X114.135 Y113.650 E10.08891
G1 X113.148 Y114.603 E10.13134
G1 X112.098 Y115.484 E10.17378
G1 X110.988 Y116.290 E10.21621
G1 X109.825 Y117.017 E10.25865
G1 X108.614 Y117.661 E10.30109
G1 X107.361 Y118.219 E10.34353
G1 X106.072 Y118.688 E10.38596
G1 X104.754 Y119.066 E10.42840
G1 X103.412 Y119.351 E10.47084
G1 X102.054 Y119.542 E10.51327
G1 X100.686 Y119.638 E10.55571
G1 X99.314 Y119.638 E10.59815
G1 X97.946 Y119.542 E10.64059
G1 X96.588 Y119.351 E10.68302
G1 X95.246 Y119.066 E10.72546
G1 X93.928 Y118.688 E10.76790
G1 X92.639 Y118.219 E10.81033
G1 X91.386 Y117.661 E10.85277
G1 X90.175 Y117.017 E10.89521
G1 X89.012 Y116.290 E10.93765
G1 X87.902 Y115.484 E10.98008
G1 X86.852 Y114.603 E11.02252
G1 X85.865 Y113.650 E11.06496
G1 X84.947 Y112.631 E11.10739
G1 X84.103 Y111.550 E11.14983
G1 X83.336 Y110.413 E11.19227
G1 X82.650 Y109.225 E11.23471
G1 X82.049 Y107.992 E11.27714
G1 X81.535 Y106.721 E11.31958
G1 X81.111 Y105.416 E11.36202
G1 X80.780 Y104.085 E11.40446
G1 X80.541 Y102.735 E11.44689
G1 X80.398 Y101.371 E11.48933
G1 X80.350 Y100.000 E11.53177
G1 X80.398 Y98.629 E11.57420
G1 X80.541 Y97.265 E11.61664
G1 X80.780 Y95.915 E11.65908
G1 X81.111 Y94.584 E11.70152
G1 X81.535 Y93.279 E11.74395
G1 X82.049 Y92.008 E11.78639
G1 X82.650 Y90.775 E11.82883
G1 X83.336 Y89.587 E11.87126
G1 X84.103 Y88.450 E11.91370
G1 X84.947 Y87.369 E11.95614
G1 X85.865 Y86.350 E11.99858
G1 X86.852 Y85.397 E12.04101
G1 X87.902 Y84.516 E12.08345
G1 X89.012 Y83.710 E12.12589
G1 X90.175 Y82.983 E12.16832
G1 X91.386 Y82.339 E12.21076
G1 X92.639 Y81.781 E12.25320
G1 X93.928 Y81.312 E12.29563
G1 X95.246 Y80.934 E12.33807
G1 X96.588 Y80.649 E12.38051
G1 X97.946 Y80.458 E12.42295
G1 X99.314 Y80.362 E12.46538
G1 X100.686 Y80.362 E12.50782
G1 X102.054 Y80.458 E12.55026
M101 ; extruder on
G1 X102.163 Y80.473 E12.55367 F378.000
G1 X102.144 Y80.522 F7800.000
G1 X102.061 Y81.115 F7800.000
M101 ; extruder on
G1 X103.299 Y81.289 E12.57069 F360.000
G1 X104.585 Y81.562 E12.58858
G1 X105.860 Y81.927 E12.60664
G1 X107.117 Y82.384 E12.62485
G1 X108.318 Y82.918 E12.64274
G1 X109.500 Y83.546 E12.66095
G1 X110.625 Y84.248 E12.67900
G1 X111.697 Y85.028 E12.69705
G1 X112.704 Y85.873 E12.71494
G1 X113.667 Y86.802 E12.73315
G1 X114.555 Y87.787 E12.75120
G1 X115.371 Y88.832 E12.76925
G1 X116.113 Y89.932 E12.78730
G1 X116.776 Y91.080 E12.80535
G1 X117.357 Y92.272 E12.82340
G1 X117.854 Y93.502 E12.84145
G1 X118.260 Y94.752 E12.85934
G1 X118.585 Y96.050 E12.87755
G1 X118.815 Y97.356 E12.89560
G1 X118.954 Y98.675 E12.91366
G1 X119.000 Y100.000 E12.93171
G1 X118.954 Y101.325 E12.94976
G1 X118.815 Y102.644 E12.96781
G1 X118.585 Y103.950 E12.98586
G1 X118.264 Y105.237 E13.00391
G1 X117.854 Y106.498 E13.02196
G1 X117.357 Y107.728 E13.04001
G1 X116.776 Y108.920 E13.05806
G1 X116.113 Y110.068 E13.07611
G1 X115.371 Y111.168 E13.09416
G1 X114.555 Y112.213 E13.11221
G1 X113.667 Y113.198 E13.13026
G1 X112.713 Y114.120 E13.14831
G1 X111.697 Y114.972 E13.16637
G1 X110.625 Y115.752 E13.18442
G1 X109.500 Y116.454 E13.20247
G1 X108.329 Y117.077 E13.22052
G1 X107.117 Y117.616 E13.23857
G1 X105.871 Y118.070 E13.25662
G1 X104.596 Y118.436 E13.27467
G1 X103.288 Y118.713 E13.29288
G1 X101.986 Y118.896 E13.31077
G1 X100.651 Y118.988 E13.32898
G1 X99.337 Y118.988 E13.34687
G1 X98.026 Y118.897 E13.36476
G1 X96.712 Y118.713 E13.38281
G1 X95.404 Y118.435 E13.40102
G1 X94.129 Y118.070 E13.41907
G1 X92.883 Y117.616 E13.43712
G1 X91.682 Y117.082 E13.45501
G1 X90.500 Y116.454 E13.47323
G1 X89.375 Y115.752 E13.49128
G1 X88.303 Y114.972 E13.50933
G1 X87.287 Y114.120 E13.52738
G1 X86.333 Y113.198 E13.54543
G1 X85.445 Y112.213 E13.56348
G1 X84.629 Y111.168 E13.58153
G1 X83.887 Y110.068 E13.59958
G1 X83.224 Y108.920 E13.61763
G1 X82.643 Y107.728 E13.63568
G1 X82.146 Y106.498 E13.65373
G1 X81.736 Y105.237 E13.67178
G1 X81.415 Y103.950 E13.68983
G1 X81.185 Y102.644 E13.70788
G1 X81.046 Y101.325 E13.72593
G1 X81.000 Y99.988 E13.74414
M101 ; extruder on
G1 X81.046 Y98.675 E13.76204 F360.000
G1 X81.184 Y97.367 E13.77993
G1 X81.415 Y96.050 E13.79814
G1 X81.736 Y94.763 E13.81619
G1 X82.142 Y93.513 E13.83408
G1 X82.643 Y92.272 E13.85229
G1 X83.224 Y91.080 E13.87034
G1 X83.881 Y89.942 E13.88823
G1 X84.629 Y88.832 E13.90644
G1 X85.453 Y87.778 E13.92465
G1 X86.333 Y86.802 E13.94254
G1 X87.287 Y85.880 E13.96059
G1 X88.303 Y85.028 E13.97864
G1 X89.366 Y84.255 E13.99653
G1 X90.500 Y83.546 E14.01474
G1 X91.671 Y82.923 E14.03279
G1 X92.872 Y82.388 E14.05068
G1 X94.129 Y81.930 E14.06889
G1 X95.404 Y81.564 E14.08695
G1 X96.649 Y81.300 E14.10427
G1 X98.014 Y81.104 E14.12304
G1 X99.337 Y81.012 E14.14110
G1 X100.651 Y81.012 E14.15899
G1 X101.986 Y81.104 E14.17720
M126
M73 P0
G1 F1800.000 E13.17720
M103 ; extruder off
G1 Z0.650 F7800.000
G1 X99.623 Y81.761 F7800.000
M101 ; extruder on
G1 E14.17720 F1800.000
G1 X100.637 Y81.761 E14.19595 F727.707
G1 X101.908 Y81.850 E14.21950
G1 X103.169 Y82.027 E14.24305
G1 X104.415 Y82.292 E14.26660
G1 X105.640 Y82.643 E14.29015
G1 X106.837 Y83.079 E14.31370
G1 X108.000 Y83.597 E14.33725
G1 X109.125 Y84.195 E14.36080
G1 X110.205 Y84.870 E14.38436
G1 X111.236 Y85.619 E14.40791
G1 X112.212 Y86.437 E14.43146
G1 X113.128 Y87.322 E14.45501
G1 X113.980 Y88.269 E14.47856
G1 X114.765 Y89.273 E14.50211
G1 X115.477 Y90.329 E14.52566
G1 X116.114 Y91.432 E14.54921
G1 X116.672 Y92.577 E14.57276
G1 X117.150 Y93.758 E14.59632
G1 X117.543 Y94.970 E14.61987
G1 X117.851 Y96.206 E14.64342
G1 X118.073 Y97.460 E14.66697
G1 X118.206 Y98.727 E14.69052
G1 X118.250 Y100.000 E14.71407
G1 X118.206 Y101.273 E14.73762
G1 X118.073 Y102.540 E14.76117
G1 X117.851 Y103.794 E14.78472
G1 X117.543 Y105.030 E14.80828
G1 X117.150 Y106.242 E14.83183
G1 X116.672 Y107.423 E14.85538
G1 X116.114 Y108.568 E14.87893
G1 X115.477 Y109.671 E14.90248
G1 X114.765 Y110.727 E14.92603
G1 X113.980 Y111.731 E14.94958
G1 X113.128 Y112.678 E14.97313
G1 X112.212 Y113.563 E14.99668
G1 X111.236 Y114.381 E15.02024
G1 X110.205 Y115.130 E15.04379
G1 X109.071 Y115.834 E15.06847
G1 X108.000 Y116.403 E15.09089
G1 X106.837 Y116.921 E15.11444
G1 X105.640 Y117.357 E15.13799
G1 X104.415 Y117.708 E15.16154
G1 X103.169 Y117.973 E15.18509
G1 X101.908 Y118.150 E15.20864
G1 X100.637 Y118.239 E15.23219
G1 X99.363 Y118.239 E15.25574
G1 X98.092 Y118.150 E15.27930
G1 X96.831 Y117.973 E15.30285
G1 X95.585 Y117.708 E15.32640
G1 X94.360 Y117.357 E15.34995
G1 X93.163 Y116.921 E15.37350
G1 X92.000 Y116.403 E15.39705
G1 X90.875 Y115.805 E15.42060
G1 X89.795 Y115.130 E15.44415
G1 X88.764 Y114.381 E15.46771
G1 X87.788 Y113.563 E15.49126
G1 X86.872 Y112.678 E15.51481
G1 X86.020 Y111.731 E15.53836
G1 X85.235 Y110.727 E15.56191
G1 X84.523 Y109.671 E15.58546
G1 X83.886 Y108.568 E15.60901
G1 X83.328 Y107.423 E15.63256
G1 X82.850 Y106.242 E15.65611
G1 X82.457 Y105.030 E15.67967
G1 X82.149 Y103.794 E15.70322
G1 X81.927 Y102.540 E15.72677
G1 X81.794 Y101.273 E15.75032
G1 X81.750 Y100.000 E15.77387
G1 X81.794 Y98.727 E15.79742
G1 X81.927 Y97.460 E15.82097
G1 X82.149 Y96.206 E15.84452
G1 X82.457 Y94.970 E15.86807
G1 X82.850 Y93.758 E15.89163
G1 X83.328 Y92.577 E15.91518
G1 X83.886 Y91.432 E15.93873
G1 X84.523 Y90.329 E15.96228
G1 X85.235 Y89.273 E15.98583
G1 X86.020 Y88.269 E16.00938
G1 X86.872 Y87.322 E16.03293
G1 X87.788 Y86.437 E16.05648
G1 X88.764 Y85.619 E16.08004
G1 X89.795 Y84.870 E16.10359
G1 X90.823 Y84.227 E16.12601
G1 X92.000 Y83.597 E16.15069
G1 X93.163 Y83.079 E16.17424
G1 X94.360 Y82.643 E16.19779
G1 X95.585 Y82.292 E16.22134
G1 X97.133 Y81.963 E16.25061
G1 X97.133 Y81.985 E16.25101
G1 X98.092 Y81.850 E16.26891
G1 X99.566 Y81.747 E16.29623
G1 X99.865 Y81.323 F7800.000
G1 X99.865 Y80.262 F7800.000
M101 ; extruder on
G1 X100.689 Y80.262 E16.31148 F727.707
G1 X102.044 Y80.357 E16.33658
M101 ; extruder on
G1 X103.430 Y80.550 E16.36245 F727.707
G1 X104.778 Y80.837 E16.38794
G1 X106.103 Y81.217 E16.41342
G1 X107.398 Y81.688 E16.43891
G1 X108.658 Y82.249 E16.46440
G1 X109.875 Y82.896 E16.48988
G1 X111.044 Y83.627 E16.51537
G1 X112.159 Y84.437 E16.54085
G1 X113.215 Y85.323 E16.56634
G1 X114.207 Y86.281 E16.59183
G1 X115.129 Y87.305 E16.61731
G1 X115.978 Y88.391 E16.64280
G1 X116.749 Y89.534 E16.66829
G1 X117.438 Y90.728 E16.69377
G1 X118.042 Y91.967 E16.71926
G1 X118.559 Y93.245 E16.74475
G1 X118.985 Y94.556 E16.77023
G1 X119.318 Y95.894 E16.79572
G1 X119.558 Y97.251 E16.82121
G1 X119.702 Y98.622 E16.84669
G1 X119.750 Y100.000 E16.87218
G1 X119.702 Y101.378 E16.89767
G1 X119.558 Y102.749 E16.92315
G1 X119.318 Y104.106 E16.94864
G1 X118.985 Y105.444 E16.97413
G1 X118.559 Y106.755 E16.99961
G1 X118.042 Y108.033 E17.02510
G1 X117.438 Y109.272 E17.05058
G1 X116.749 Y110.466 E17.07607
G1 X115.978 Y111.609 E17.10156
G1 X115.129 Y112.695 E17.12704
G1 X114.207 Y113.719 E17.15253
G1 X113.215 Y114.677 E17.17802
G1 X112.159 Y115.563 E17.20350
G1 X111.044 Y116.373 E17.22899
G1 X109.875 Y117.104 E17.25448
G1 X108.658 Y117.751 E17.27996
